app/img/_src/main/advantages-list/advantages-1.svg

<svg width="77" height="80" viewBox="0 0 77 80" fill="none" xmlns="http://www.w3.org/2000/svg">
<path d="M33.54 45.7367H3.38562C2.00684 45.7367 2.00684 43.6523 3.38562 43.6523H30.6183C32.168 43.6523 32.1698 41.3092 30.6183 41.3092H5.6958V6.77124H69.3182V41.3092H61.7761C60.2271 41.3092 60.224 43.6523 61.7761 43.6523H72.0526C73.4308 43.6523 73.4308 45.7367 72.0526 45.7367H59.0637C57.5146 45.7367 57.5122 48.0804 59.0637 48.0804H72.0526C73.9191 48.0804 75.4376 46.5613 75.4376 44.6948C75.4376 42.8278 73.9191 41.3092 72.0526 41.3092H71.662V6.77124H72.0526C73.9191 6.77124 75.4376 5.25208 75.4376 3.38562C75.4376 1.51855 73.9191 0 72.0526 0H3.38562C1.51855 0 0 1.51855 0 3.38562C0 5.24109 1.50085 6.75293 3.35205 6.77124V41.3092C1.50085 41.3275 0 42.8387 0 44.6948C0 46.5613 1.51855 48.0804 3.38562 48.0804H33.54C35.0891 48.0804 35.0916 45.7367 33.54 45.7367ZM3.38562 2.34375H72.0526C73.4308 2.34375 73.4308 4.42749 72.0526 4.42749H3.38562C2.00623 4.42749 2.00806 2.34375 3.38562 2.34375Z" fill="#444444"/>
<path d="M20.167 11.0104C20.167 9.98132 19.3296 9.14453 18.3005 9.14453H10.944C9.91492 9.14453 9.07812 9.98132 9.07812 11.0104V15.5551C9.07812 16.5841 9.91492 17.4209 10.944 17.4209H18.3005C19.3296 17.4209 20.167 16.5841 20.167 15.5551V11.0104ZM17.8232 15.0771H11.4213V11.4877H17.8232V15.0771Z" fill="#444444"/>
<path d="M20.167 21.8702C20.167 20.8412 19.3296 20.0044 18.3005 20.0044H10.944C9.91492 20.0044 9.07812 20.8412 9.07812 21.8702V26.4149C9.07812 27.444 9.91492 28.2808 10.944 28.2808H18.3005C19.3296 28.2808 20.167 27.444 20.167 26.4149V21.8702ZM17.8232 25.937H11.4213V22.3475H17.8232V25.937Z" fill="#444444"/>
<path d="M18.3005 30.8643H10.944C9.91492 30.8643 9.07812 31.701 9.07812 32.7301V37.2748C9.07812 38.3038 9.91492 39.1406 10.944 39.1406H18.3005C19.3296 39.1406 20.167 38.3038 20.167 37.2748V32.7301C20.167 31.701 19.3296 30.8643 18.3005 30.8643ZM17.8232 36.7975H11.4213V33.2074H17.8232V36.7975Z" fill="#444444"/>
<path d="M69.7406 53.2469C68.4644 52.6982 67.1259 52.3064 65.7623 52.0409L53.8892 49.7325V46.7986C57.2235 44.5244 59.0283 41.303 59.4214 37.6854C61.1517 37.5481 62.5183 36.0961 62.5183 34.3309V31.9225C65.34 30.6957 64.9585 26.5782 61.9733 25.8837V24.9535C61.9733 16.5972 55.199 9.82227 46.842 9.82227H45.5737C37.2168 9.82227 30.4425 16.5972 30.4425 24.9535V25.8831C27.4585 26.5776 27.0758 30.6957 29.8981 31.9225V34.3303C29.8981 36.0961 31.264 37.5481 32.995 37.6848C33.3862 41.2859 35.1691 44.5079 38.5272 46.7986V49.7319L26.6541 52.0409C25.2905 52.3064 23.952 52.6976 22.6758 53.2469C17.8583 55.3203 15.5078 58.6302 15.5078 63.3055V65.7128C15.5078 67.2618 17.851 67.2643 17.851 65.7128V63.3062C17.851 59.7948 19.4464 57.3668 22.9462 55.6896C23.0872 56.3134 25.2344 62.1416 25.2344 70.2849V77.6567H20.2826C18.9398 77.6567 17.851 76.5679 17.851 75.2251V70.3752C17.851 68.8262 15.5078 68.8237 15.5078 70.3752V75.2251C15.5078 77.8624 17.6453 79.9999 20.2826 79.9999H72.1338C74.7711 79.9999 76.9086 77.8624 76.9086 75.2251V63.3062C76.9086 58.6302 74.5575 55.3203 69.7406 53.2469ZM67.2852 54.8186C67.1222 55.5339 64.8383 61.6826 64.8383 70.2849V77.6567H47.3798V71.7528C47.3798 69.9974 47.9138 68.3104 48.924 66.8749C50.437 64.7234 56.6693 55.7311 58.5175 53.0199C66.9293 54.7136 65.9149 54.3627 67.2852 54.8186ZM45.4089 65.526C44.5099 64.2479 43.3423 62.5707 42.1234 60.8129C42.4854 60.7329 42.8387 60.5938 43.1702 60.3954L46.2079 58.5735L49.2456 60.3954C49.577 60.5938 49.9304 60.7329 50.2924 60.8129C49.0747 62.5701 47.9071 64.2467 47.0074 65.526C46.7078 65.952 46.441 66.3951 46.2079 66.8523C45.9753 66.3951 45.7086 65.952 45.4089 65.526ZM43.8159 57.2753C41.9604 58.2689 42.0923 58.5662 41.2494 58.4661C40.7251 58.4038 40.2545 58.1121 39.9542 57.6775C38.5535 55.6487 37.2565 53.7664 36.4075 52.5316L38.7543 52.0757C39.5123 54.3779 42.0105 56.209 43.8159 57.2753ZM56.0089 52.5322C55.1575 53.7694 53.8574 55.6572 52.453 57.6909C51.8799 58.5198 50.8527 58.626 50.451 58.3849L48.5999 57.2753C50.4059 56.209 52.9034 54.3779 53.6615 52.0757L56.0089 52.5322ZM39.3829 13.767V15.2367C39.3829 16.7858 41.7261 16.7882 41.7261 15.2367V12.7574C42.7777 12.4248 43.8879 12.2252 45.0366 12.1776V17.9717C45.0366 19.5208 47.3798 19.5232 47.3798 17.9717V12.1776C48.5284 12.2252 49.6387 12.4254 50.6897 12.7574V15.2367C50.6897 16.7858 53.0334 16.7882 53.0334 15.2367V13.7676C60.3589 17.8374 59.5801 25.6157 59.6301 25.8013H32.7863C32.8265 25.6505 32.0953 17.8167 39.3829 13.767ZM31.1664 28.1444H61.25C62.3737 28.1444 62.3718 29.8418 61.25 29.8418H31.1664C30.0427 29.8418 30.0446 28.1444 31.1664 28.1444ZM35.2643 36.4989C35.2502 35.8617 34.7302 35.3527 34.0924 35.3527C33.8971 35.3038 32.2418 35.6566 32.2418 34.3309V32.1855H60.1752V34.3309C60.1752 35.6548 58.4747 35.3148 58.324 35.3527C57.6862 35.3527 57.1655 35.8617 57.1521 36.4989C57.0892 39.4286 55.8447 42.1495 53.7366 43.9641C49.2615 47.8173 43.1555 47.8179 38.6798 43.9641C36.5717 42.1495 35.3265 39.428 35.2643 36.4989ZM51.5454 48.0925V50.6981C51.5454 52.7935 47.9895 55.0121 46.2079 55.9087C44.4281 55.0127 40.8801 52.7996 40.8704 50.7067C40.8704 50.7042 40.8704 50.7012 40.8704 50.6981V48.0925C44.281 49.5635 48.1311 49.5653 51.5454 48.0925ZM25.1312 54.8186C26.4996 54.3639 25.4828 54.7142 33.8983 53.0199L34.5679 53.9928C35.2509 54.9858 36.1963 56.3585 37.2443 57.8771C39.1559 60.6481 41.7926 64.4585 43.4924 66.8743C44.5026 68.3104 45.0366 69.9968 45.0366 71.7528V77.6561H27.5781V70.2843C27.5781 61.4611 25.3497 55.7805 25.1312 54.8186ZM74.5648 75.2251C74.5648 76.5654 73.4747 77.6561 72.1338 77.6561H67.182V70.2849C67.182 62.365 69.3835 56.0729 69.4708 55.6896C72.97 57.3668 74.5654 59.7948 74.5654 63.3062V75.2251H74.5648Z" fill="#444444"/>
<path d="M52.5975 67.7788C51.4928 67.7788 50.5938 68.6779 50.5938 69.7826V72.1306C50.5938 73.236 51.4928 74.1344 52.5975 74.1344H59.489C60.5938 74.1344 61.4928 73.236 61.4928 72.1306V69.7826C61.4928 68.6779 60.5938 67.7788 59.489 67.7788H52.5975ZM59.149 71.7906H52.9375V70.1226H59.149V71.7906Z" fill="#444444"/>
</svg>

<svg width="77" height="80" fill="none" xmlns="http://www.w3.org/2000/svg"><path d="M33.54 45.737H3.386c-1.38 0-1.38-2.085 0-2.085h27.232c1.55 0 1.552-2.343 0-2.343H5.696V6.771h63.622V41.31h-7.542c-1.549 0-1.552 2.343 0 2.343h10.277c1.378 0 1.378 2.085 0 2.085h-12.99c-1.548 0-1.55 2.343 0 2.343h12.99a3.39 3.39 0 003.385-3.385 3.389 3.389 0 00-3.385-3.386h-.391V6.771h.39a3.39 3.39 0 003.386-3.385A3.389 3.389 0 0072.053 0H3.386A3.39 3.39 0 000 3.386 3.39 3.39 0 003.352 6.77v34.54A3.39 3.39 0 000 44.695a3.39 3.39 0 003.386 3.385H33.54c1.55 0 1.552-2.343 0-2.343zM3.386 2.344h68.667c1.378 0 1.378 2.083 0 2.083H3.386c-1.38 0-1.378-2.083 0-2.083z" fill="#444"/><path d="M20.167 11.01A1.867 1.867 0 0018.3 9.145h-7.356c-1.03 0-1.866.836-1.866 1.865v4.545c0 1.03.837 1.866 1.866 1.866H18.3c1.03 0 1.867-.837 1.867-1.866V11.01zm-2.344 4.067h-6.402v-3.59h6.402v3.59zm2.344 6.793a1.868 1.868 0 00-1.867-1.866h-7.356c-1.03 0-1.866.837-1.866 1.866v4.545c0 1.029.837 1.866 1.866 1.866H18.3c1.03 0 1.867-.837 1.867-1.866V21.87zm-2.344 4.067h-6.402v-3.59h6.402v3.59zm.477 4.927h-7.356c-1.03 0-1.866.837-1.866 1.866v4.545c0 1.029.837 1.866 1.866 1.866H18.3c1.03 0 1.867-.837 1.867-1.866V32.73a1.868 1.868 0 00-1.867-1.866zm-.477 5.933h-6.402v-3.59h6.402v3.59zm51.917 16.45a19.492 19.492 0 00-3.978-1.206L53.89 49.733v-2.934c3.334-2.275 5.14-5.496 5.532-9.114a3.37 3.37 0 003.097-3.354v-2.409c2.822-1.226 2.44-5.344-.545-6.038v-.93c0-8.357-6.774-15.132-15.131-15.132h-1.268c-8.357 0-15.131 6.775-15.131 15.131v.93c-2.985.695-3.367 4.813-.545 6.04v2.407a3.369 3.369 0 003.097 3.355c.391 3.6 2.174 6.823 5.532 9.114v2.933L26.654 52.04a19.454 19.454 0 00-3.978 1.206c-4.818 2.073-7.168 5.383-7.168 10.059v2.407c0 1.549 2.343 1.551 2.343 0v-2.407c0-3.511 1.595-5.94 5.095-7.616.141.623 2.288 6.452 2.288 14.595v7.372h-4.951a2.432 2.432 0 01-2.432-2.432v-4.85c0-1.549-2.343-1.551-2.343 0v4.85A4.774 4.774 0 0020.283 80h51.85a4.774 4.774 0 004.776-4.775V63.306c0-4.676-2.352-7.986-7.168-10.06zm-2.455 1.572c-.163.715-2.447 6.864-2.447 15.466v7.372H47.38v-5.904c0-1.756.534-3.443 1.544-4.878a2197.735 2197.735 0 009.593-13.855c8.412 1.694 7.398 1.343 8.768 1.799zM45.41 65.526a919.823 919.823 0 01-3.286-4.713c.362-.08.716-.22 1.047-.418l3.038-1.822 3.038 1.822a3.49 3.49 0 001.046.418 883.503 883.503 0 01-3.285 4.713c-.3.426-.566.87-.8 1.326-.232-.457-.498-.9-.798-1.326zm-1.593-8.25c-1.856.993-1.724 1.29-2.567 1.19a1.846 1.846 0 01-1.295-.788l-3.547-5.146 2.347-.456c.758 2.302 3.257 4.133 5.062 5.2zm12.193-4.744c-.852 1.237-2.152 3.125-3.556 5.159-.573.829-1.6.935-2.002.694l-1.851-1.11c1.806-1.066 4.303-2.897 5.061-5.2l2.348.457zM39.383 13.767v1.47c0 1.549 2.343 1.551 2.343 0v-2.48a12.711 12.711 0 013.31-.58v5.795c0 1.549 2.344 1.551 2.344 0v-5.794c1.148.047 2.259.247 3.31.58v2.479c0 1.549 2.343 1.551 2.343 0v-1.47c7.326 4.07 6.547 11.849 6.597 12.034H32.786c.04-.15-.69-7.984 6.597-12.034zm-8.217 14.377H61.25c1.124 0 1.122 1.698 0 1.698H31.166c-1.123 0-1.121-1.698 0-1.698zm4.098 8.355a1.172 1.172 0 00-1.172-1.146c-.195-.05-1.85.304-1.85-1.022v-2.146h27.933v2.146c0 1.324-1.7.984-1.851 1.022-.638 0-1.158.509-1.172 1.146-.063 2.93-1.307 5.65-3.415 7.465-4.476 3.853-10.581 3.854-15.057 0-2.108-1.814-3.353-4.536-3.416-7.465zm16.281 11.593v2.606c0 2.096-3.556 4.314-5.337 5.21-1.78-.895-5.328-3.108-5.338-5.201v-2.614a13.455 13.455 0 0010.675 0zM25.131 54.82c1.369-.455.352-.105 8.767-1.8l.67.974c.683.993 1.628 2.365 2.676 3.884 1.912 2.771 4.549 6.581 6.248 8.997a8.436 8.436 0 011.545 4.879v5.903H27.578v-7.372c0-8.823-2.228-14.504-2.447-15.465zm49.434 20.406c0 1.34-1.09 2.431-2.431 2.431h-4.952v-7.371c0-7.92 2.201-14.212 2.289-14.595 3.499 1.677 5.094 4.105 5.094 7.616v11.92z" fill="#444"/><path d="M52.597 67.779a2.006 2.006 0 00-2.003 2.004v2.348c0 1.105.899 2.003 2.003 2.003h6.892a2.006 2.006 0 002.004-2.003v-2.348a2.006 2.006 0 00-2.004-2.004h-6.892zm6.552 4.012h-6.212v-1.668h6.212v1.668z" fill="#444"/></svg>
